!!!OTL: Es wollt ein J&auml;ger sich jagen (233a), S. 502
!!!id: T0419
**kern
*clefG2
*k[]
*C:
{8g
=1
8g
8g
8g
8g
8a
8b
=2
4.cc
4a}
=3
{8a
=4
8a
8a
8a
8cc
8b
8a
=5
4g
8cc
4e}
=6
{8g
=7
4g
8e
4d
8cc
=8
4cc
8ee
4ee}
=9
{8cc
=10
4dd
8dd
8b
8a
8b
=11
4cc}
4.r
==
*-
!!!minrhy: 8
!!!meters: 6/8 ]  ZZ[4
!!!cut: Es wollt ein J&auml;ger sich jagen (233a), S. 502
!!!reg: Luxemburg
!!!trd: Singendes Volk, Esch-Alzette, 1937 posth.
!!!rhy1: X  XXXXXX  X_.X_
!!!rhy2: X  XXXXXX  X_XX_
!!!key: T0419  08  C 6/8 ]  ZZ[4
!!!mod: SECHSTONSKALA DUR ?]  AMBITUS[9
!!!kad: 63+3+1
!!!akz: 55+16_6+153_53+1+3_+27+1_
!!!fot: 'a__b__c__d__
!!!for: 'a__b__c__d__
!!!fok: '^a_^d_Va_V__
!! PHRAS[AUFTAKTIG]
!!!fkt: Jagdlied
!!!bem: Esch-Alzette, fff Michel Rauchs, 22.1.1914
!! THILL; Mathias
!! PR[31] 2K[4] 2G[15] 3K[3] 3G[0] 4A[7] 4Ü[0] 5A[0] 6K[0] 6G[0]
!! 7K[3] 7G[0] 8A[0] MEHR[0] SI[31] ABS[74] SR[19] SP[12]
!! ST[14] 2k[9] 2g[20] 3k[1] 3g[3] 4d[0] 4ü[0] 5d[1] 6k[3] 6g[0]
!! 7k[0] 7g[0] 8d[0] mehr[0] si[38] dm[-7] sr[30] sp[8]
!! 1F[70] 2F[28] 3F[1] 4F[0] LF[0] 2P[1] 3P[0] 4P[0] TRI[0] DF[4] AB[76]
!! TF[0] U3K[0] U3[0] U4[0] U4Ü[0] U5[0] U6K[0] U6[0] U7K[0] U7[0]
!! N1[1] N2K[0] N2[3] N3K[0] N3[4] N4[1] N4Ü[0] N5[24] N6K[0] N6[21]
!!!n7k: 0] N7[9] O1[11] O2K[0] O2[12] O3K[0] O3[9] HÖ[4
!!!RNB: symbol: &auml;      = a umlaut  (UTF-8: Å„)
